img/global.svg

<svg width="40" height="40" viewBox="0 0 40 40" fill="none" xmlns="http://www.w3.org/2000/svg">
<g id="vuesax/bold/global">
<path id="Vector" d="M12.7501 34.8499C12.7001 34.8499 12.6334 34.8833 12.5834 34.8833C9.3501 33.2833 6.71676 30.6333 5.1001 27.3999C5.1001 27.3499 5.13343 27.2833 5.13343 27.2333C7.16676 27.8333 9.26676 28.2833 11.3501 28.6333C11.7168 30.7333 12.1501 32.8166 12.7501 34.8499Z" fill="white"/>
<path id="Vector_2" d="M34.8999 27.4166C33.2499 30.7333 30.4999 33.4166 27.1499 35.0333C27.7832 32.9166 28.3166 30.7833 28.6666 28.6333C30.7666 28.2833 32.8332 27.8333 34.8666 27.2333C34.8499 27.2999 34.8999 27.3666 34.8999 27.4166Z" fill="white"/>
<path id="Vector_3" d="M35.0332 12.85C32.9332 12.2167 30.8166 11.7 28.6666 11.3333C28.3166 9.18334 27.7999 7.05001 27.1499 4.96667C30.5999 6.61667 33.3832 9.40001 35.0332 12.85Z" fill="white"/>
<path id="Vector_4" d="M12.7501 5.14998C12.1501 7.18331 11.7168 9.24998 11.3668 11.35C9.2168 11.6833 7.08346 12.2166 4.9668 12.85C6.58346 9.49998 9.2668 6.74998 12.5835 5.09998C12.6335 5.09998 12.7001 5.14998 12.7501 5.14998Z" fill="white"/>
<path id="Vector_5" d="M25.8164 10.9834C21.9498 10.55 18.0498 10.55 14.1831 10.9834C14.5998 8.70004 15.1331 6.41671 15.8831 4.21671C15.9164 4.08337 15.8998 3.98337 15.9164 3.85004C17.2331 3.53337 18.5831 3.33337 19.9998 3.33337C21.3998 3.33337 22.7664 3.53337 24.0664 3.85004C24.0831 3.98337 24.0831 4.08337 24.1164 4.21671C24.8664 6.43337 25.3998 8.70004 25.8164 10.9834Z" fill="white"/>
<path id="Vector_6" d="M10.9835 25.8167C8.6835 25.4 6.41683 24.8667 4.21683 24.1167C4.0835 24.0833 3.9835 24.1 3.85016 24.0833C3.5335 22.7667 3.3335 21.4167 3.3335 20C3.3335 18.6 3.5335 17.2333 3.85016 15.9333C3.9835 15.9167 4.0835 15.9167 4.21683 15.8833C6.4335 15.15 8.6835 14.6 10.9835 14.1833C10.5668 18.05 10.5668 21.95 10.9835 25.8167Z" fill="white"/>
<path id="Vector_7" d="M36.6666 20C36.6666 21.4167 36.4666 22.7667 36.1499 24.0833C36.0166 24.1 35.9166 24.0833 35.7833 24.1167C33.5666 24.85 31.2999 25.4 29.0166 25.8167C29.4499 21.95 29.4499 18.05 29.0166 14.1833C31.2999 14.6 33.5833 15.1333 35.7833 15.8833C35.9166 15.9167 36.0166 15.9333 36.1499 15.9333C36.4666 17.25 36.6666 18.6 36.6666 20Z" fill="white"/>
<path id="Vector_8" d="M25.8164 29.0167C25.3998 31.3167 24.8664 33.5834 24.1164 35.7834C24.0831 35.9167 24.0831 36.0167 24.0664 36.1501C22.7664 36.4667 21.3998 36.6667 19.9998 36.6667C18.5831 36.6667 17.2331 36.4667 15.9164 36.1501C15.8998 36.0167 15.9164 35.9167 15.8831 35.7834C15.1498 33.5667 14.5998 31.3167 14.1831 29.0167C16.1164 29.2334 18.0498 29.3834 19.9998 29.3834C21.9498 29.3834 23.8998 29.2334 25.8164 29.0167Z" fill="white"/>
<path id="Vector_9" d="M26.2724 26.2723C22.1039 26.7982 17.8964 26.7982 13.7279 26.2723C13.202 22.1038 13.202 17.8963 13.7279 13.7278C17.8964 13.2019 22.1039 13.2019 26.2724 13.7278C26.7983 17.8963 26.7983 22.1038 26.2724 26.2723Z" fill="white"/>
</g>
</svg>

<svg xmlns="http://www.w3.org/2000/svg" width="40" height="40" fill="none"><g fill="#fff"><path d="M12.75 34.85c-.05 0-.117.033-.167.033-3.233-1.6-5.866-4.25-7.483-7.483 0-.05.033-.117.033-.167 2.034.6 4.134 1.05 6.217 1.4.367 2.1.8 4.184 1.4 6.217M34.9 27.417c-1.65 3.316-4.4 6-7.75 7.616.633-2.116 1.167-4.25 1.517-6.4 2.1-.35 4.166-.8 6.2-1.4-.017.067.033.134.033.184M35.033 12.85a53 53 0 0 0-6.366-1.517 46.5 46.5 0 0 0-1.517-6.366 16.75 16.75 0 0 1 7.883 7.883M12.75 5.15c-.6 2.033-1.033 4.1-1.383 6.2-2.15.333-4.284.867-6.4 1.5 1.616-3.35 4.3-6.1 7.617-7.75.05 0 .116.05.166.05M25.816 10.983a52.2 52.2 0 0 0-11.633 0c.417-2.283.95-4.566 1.7-6.766.033-.134.017-.234.033-.367 1.317-.317 2.667-.517 4.084-.517 1.4 0 2.766.2 4.066.517.017.133.017.233.05.367.75 2.216 1.284 4.483 1.7 6.766M10.984 25.817c-2.3-.417-4.567-.95-6.767-1.7-.133-.034-.233-.017-.367-.034-.316-1.316-.517-2.666-.517-4.083 0-1.4.2-2.767.517-4.067.133-.016.233-.016.367-.05a50 50 0 0 1 6.767-1.7 54.3 54.3 0 0 0 0 11.634M36.667 20c0 1.417-.2 2.767-.517 4.083-.133.017-.233 0-.367.034-2.216.733-4.483 1.283-6.766 1.7a52.2 52.2 0 0 0 0-11.634c2.283.417 4.566.95 6.766 1.7.134.034.234.05.367.05.317 1.317.517 2.667.517 4.067M25.816 29.017c-.416 2.3-.95 4.566-1.7 6.766-.033.134-.033.234-.05.367-1.3.317-2.666.517-4.066.517-1.417 0-2.767-.2-4.084-.517-.016-.133 0-.233-.033-.367a50 50 0 0 1-1.7-6.766c1.933.216 3.867.366 5.817.366s3.9-.15 5.816-.366M26.272 26.272a50 50 0 0 1-12.544 0 50 50 0 0 1 0-12.544 50 50 0 0 1 12.544 0 50 50 0 0 1 0 12.544"/></g></svg>
